usr/share/icons/biglinux-icons-material-dark/22/actions/vcs-merge-request.svg

<svg id="svg19" version="1.1" viewBox="0 0 22 22" xmlns="http://www.w3.org/2000/svg">
    <style id="current-color-scheme" type="text/css">.ColorScheme-Text {
            color:#dedede;
        }</style>
    <g id="g13" class="ColorScheme-Text" fill="currentColor" stroke-linecap="square">
        <path id="path3" d="M 5.5,4 A 2.5,2.5 0 0 0 3,6.5 2.5,2.5 0 0 0 5.5,9 2.5,2.5 0 0 0 8,6.5 2.5,2.5 0 0 0 5.5,4 Z m 0,1 A 1.5,1.5 0 0 1 7,6.5 1.5,1.5 0 0 1 5.5,8 1.5,1.5 0 0 1 4,6.5 1.5,1.5 0 0 1 5.5,5 Z"/>
        <path id="path5" d="m5.5 14a2.5 2.5 0 0 0-2.5 2.5 2.5 2.5 0 0 0 2.5 2.5 2.5 2.5 0 0 0 2.5-2.5 2.5 2.5 0 0 0-2.5-2.5zm0 1a1.5 1.5 0 0 1 1.5 1.5 1.5 1.5 0 0 1-1.5 1.5 1.5 1.5 0 0 1-1.5-1.5 1.5 1.5 0 0 1 1.5-1.5z"/>
        <path id="path7" d="m15.5 14a2.5 2.5 0 0 0-2.5 2.5 2.5 2.5 0 0 0 2.5 2.5 2.5 2.5 0 0 0 2.5-2.5 2.5 2.5 0 0 0-2.5-2.5zm0 1a1.5 1.5 0 0 1 1.5 1.5 1.5 1.5 0 0 1-1.5 1.5 1.5 1.5 0 0 1-1.5-1.5 1.5 1.5 0 0 1 1.5-1.5z"/>
        <path id="path9" d="m5 8h1v7h-1z"/>
        <path id="path11" d="m10 6v1h4a1 1 0 0 1 1 1v7h1v-7a2 2 0 0 0-1.951172-2 2 2 0 0 0-0.048828 0z"/>
    </g>
    <path id="path15" d="M 12.5 2.7929688 L 12.146484 3.1464844 L 8.7929688 6.5 L 12.146484 9.8535156 L 12.5 10.207031 L 13.207031 9.5 L 12.853516 9.1464844 L 10.207031 6.5 L 12.853516 3.8535156 L 13.207031 3.5 L 12.5 2.7929688 z " class="ColorScheme-Text" fill="currentColor"/>
</svg>

<svg xmlns="http://www.w3.org/2000/svg" id="svg19" version="1.1" viewBox="0 0 22 22">
<style id="current-color-scheme" type="text/css">
.ColorScheme-Text{color:#dedede}
</style>
<g id="g13" fill="currentColor" stroke-linecap="square" class="ColorScheme-Text">
<path id="path3" d="M5.5 4A2.5 2.5 0 0 0 3 6.5 2.5 2.5 0 0 0 5.5 9 2.5 2.5 0 0 0 8 6.5 2.5 2.5 0 0 0 5.5 4m0 1A1.5 1.5 0 0 1 7 6.5 1.5 1.5 0 0 1 5.5 8 1.5 1.5 0 0 1 4 6.5 1.5 1.5 0 0 1 5.5 5"/>
<path id="path5" d="M5.5 14A2.5 2.5 0 0 0 3 16.5 2.5 2.5 0 0 0 5.5 19 2.5 2.5 0 0 0 8 16.5 2.5 2.5 0 0 0 5.5 14m0 1A1.5 1.5 0 0 1 7 16.5 1.5 1.5 0 0 1 5.5 18 1.5 1.5 0 0 1 4 16.5 1.5 1.5 0 0 1 5.5 15"/>
<path id="path7" d="M15.5 14a2.5 2.5 0 0 0-2.5 2.5 2.5 2.5 0 0 0 2.5 2.5 2.5 2.5 0 0 0 2.5-2.5 2.5 2.5 0 0 0-2.5-2.5m0 1a1.5 1.5 0 0 1 1.5 1.5 1.5 1.5 0 0 1-1.5 1.5 1.5 1.5 0 0 1-1.5-1.5 1.5 1.5 0 0 1 1.5-1.5"/>
<path id="path9" d="M5 8h1v7H5z"/>
<path id="path11" d="M10 6v1h4a1 1 0 0 1 1 1v7h1V8a2 2 0 0 0-1.951-2H14z"/>
</g>
<path id="path15" fill="currentColor" d="m12.5 2.793-.354.353L8.793 6.5l3.353 3.354.354.353.707-.707-.353-.354L10.207 6.5l2.647-2.646.353-.354z" class="ColorScheme-Text"/>
</svg>
